vendor/shopware/storefront/Resources/app/storefront/dist/assets/icon/default/gamecontroler.svg

<svg xmlns="http://www.w3.org/2000/svg" width="24" height="24" viewBox="0 0 24 24">
  <path fill="#758CA3" fill-rule="evenodd" d="M7,11 L8,11 C8.55228475,11 9,11.4477153 9,12 C9,12.5522847 8.55228475,13 8,13 L7,13 L7,14 C7,14.5522847 6.55228475,15 6,15 C5.44771525,15 5,14.5522847 5,14 L5,13 L4,13 C3.44771525,13 3,12.5522847 3,12 C3,11.4477153 3.44771525,11 4,11 L5,11 L5,10 C5,9.44771525 5.44771525,9 6,9 C6.55228475,9 7,9.44771525 7,10 L7,11 Z M0,11.5 C-3.93624527e-16,7.91014913 2.91014913,5 6.5,5 L17.5,5 C21.0898509,5 24,7.91014913 24,11.5 L24,14.3074176 C24,16.3425492 22.7609629,18.1726478 20.8713907,18.9284767 L20.4585779,19.0936018 C18.838417,19.7416662 16.9975978,19.4981984 15.6016245,18.4512184 L14.4666667,17.6 C13.9473782,17.2105336 13.3157773,17 12.6666667,17 L11.3333333,17 C10.6842227,17 10.0526218,17.2105336 9.53333333,17.6 L8.39837552,18.4512184 C7.00240218,19.4981984 5.16158302,19.7416662 3.54142214,19.0936018 L3.12860932,18.9284767 C1.23903706,18.1726478 1.88930258e-15,16.3425492 2.22044605e-16,14.3074176 L0,11.5 Z M2,11.5 L2,14.3074176 C2,15.52474 2.74113517,16.6194211 3.87139068,17.0715233 L4.28420349,17.2366484 C5.25630002,17.625487 6.36079151,17.4794064 7.19837552,16.8512184 L8.33333333,16 C9.19881419,15.3508894 10.2514823,15 11.3333333,15 L12.6666667,15 C13.7485177,15 14.8011858,15.3508894 15.6666667,16 L16.8016245,16.8512184 C17.6392085,17.4794064 18.7437,17.625487 19.7157965,17.2366484 L20.1286093,17.0715233 C21.2588648,16.6194211 22,15.52474 22,14.3074176 L22,11.5 C22,9.01471863 19.9852814,7 17.5,7 L6.5,7 C4.01471863,7 2,9.01471863 2,11.5 Z M17,12 C17.5522847,12 18,12.4477153 18,13 C18,13.5522847 17.5522847,14 17,14 C16.4477153,14 16,13.5522847 16,13 C16,12.4477153 16.4477153,12 17,12 Z M19,10 C19.5522847,10 20,10.4477153 20,11 C20,11.5522847 19.5522847,12 19,12 C18.4477153,12 18,11.5522847 18,11 C18,10.4477153 18.4477153,10 19,10 Z"/>
</svg>

<svg xmlns="http://www.w3.org/2000/svg" width="24" height="24" viewBox="0 0 24 24"><path fill="#758CA3" fill-rule="evenodd" d="M7 11h1c.5523 0 1 .4477 1 1s-.4477 1-1 1H7v1c0 .5523-.4477 1-1 1s-1-.4477-1-1v-1H4c-.5523 0-1-.4477-1-1s.4477-1 1-1h1v-1c0-.5523.4477-1 1-1s1 .4477 1 1v1zm-7 .5C0 7.9101 2.9101 5 6.5 5h11c3.5899 0 6.5 2.9101 6.5 6.5v2.8074a4.977 4.977 0 0 1-3.1286 4.621l-.4128.1652a5 5 0 0 1-4.857-.6424l-1.135-.8512a3 3 0 0 0-1.8-.6h-1.3333a3 3 0 0 0-1.8.6l-1.135.8512a5 5 0 0 1-4.8569.6424l-.4128-.1651A4.977 4.977 0 0 1 0 14.3075V11.5zm2 0v2.8074a2.977 2.977 0 0 0 1.8714 2.7641l.4128.1651a3 3 0 0 0 2.9142-.3854L8.3334 16a5 5 0 0 1 3-1h1.3333a5 5 0 0 1 3 1l1.135.8512a3 3 0 0 0 2.9141.3854l.4128-.165A2.977 2.977 0 0 0 22 14.3073V11.5C22 9.0147 19.9853 7 17.5 7h-11C4.0147 7 2 9.0147 2 11.5zm15 .5c.5523 0 1 .4477 1 1s-.4477 1-1 1-1-.4477-1-1 .4477-1 1-1zm2-2c.5523 0 1 .4477 1 1s-.4477 1-1 1-1-.4477-1-1 .4477-1 1-1z"/></svg>
